X: 13362
T: Flax In Bloom, The
R: reel
M: 4/4
K: Dmajor
D2 F/E/D FAAf|gefd edBd|AF- F2 DFAF|GEFD EA,- A,2|
DEFA df- f2|g3 f fedB|B/c/B FB ABde|faea fdAF|
D2 F/E/D FAAf|gefd edBd|ADFA dfaf|gefd eB- B2|
ADFA DFAd|gefd edBd|A/B/A FB ABde|faea fdd||
|:e|f3 f fecA|d3 A BAFA|DFAd FAdf|gefd eB- B2|
fagf egfe|d3 A BAFA|DFAc defg|1 afeg fdd:|2 afeg fdAF||
D2 F/E/D FAAf|gefd edBd|AF- F2 DFAF|GEFD EA,- A,2|
DEFA df- f2|g3 f fedB|B/c/B FB ABde|1 faea fdAF:|2 faea fdd||
|:e|f3 f g3 g|a3 A BAFA|DFAd FAdf|gefd eB- B2|
fagf egfe|d3 A BAFA|DFAc defg|ageg fd de|
f3 f fecA|d3 A BAFA|DFAd FAdf|gefd eB- B2|
fagf egfe|d3 A BAFA|DFAc defg|afeg fd d2||

